!! 00049] TT[KA
!! NN
!!!OTL: A li lang
!!!ARE: Jilin, Yanbian
!! Ethnic Group: Chaoxian
!! III, 172
!!!SCT: C0288
!!!YEM: Copyright 1995, estate of Helmut Schaffrath.
**kern
*ICvox
*Ivox
*M3/4
*k[f#]
*G:
{4.d
8e
8d
8e
=1
4.g
8a
8g
8a
=2
4b
8a
8b
8g
8e
=3
4.d
8e
8d
8e}
=4
{4.g
8a
8g
8a
=5
8b
8a
8g
8e
8d
8e
=6
4.g
16a
16a
4g
=7
2g
4r}
=8
{2dd
4dd
=9
4dd
4b
8a
8a
=10
4b
8a
8b
8g
8e
=11
4.d
8e
8d
8r}
=12
{4.g
8a
8g
8a
=13
8b
8a
8g
8e
8d
8e
=14
4.g
8a
4g
=15
2g
4r}
==
!!!AGN: Wuge
!! Der Geliebte wandert aus, das Maedchen denkt an ihn.
!!!ONB: ESAC (Essen Associative Code) Database: CHINA
!!!AMT: simple triple
!!!AIN: vox
!!!EED: Helmut Schaffrath
!!!EEV: 1.0
*-
